src/topics/icons/expo.svg

<svg height="227" preserveAspectRatio="xMidYMid" viewBox="0 0 256 227" width="256" xmlns="http://www.w3.org/2000/svg"><path d="m159.032004 16.2735642c-9.427445-14.36562908-11.672074-16.2735642-30.863657-16.2735642h-.224463-.224463c-19.191582 0-21.32398 1.90793512-30.863656 16.2735642-8.8662867 13.4677773-96.855765 174.6321788-96.855765 179.1214378 0 6.509426 1.68347216 12.682157 7.74397194 21.436212 6.17273126 8.866287 16.83472166 13.804472 24.57869356 5.948269 5.2748794-5.27488 61.7273126-102.579571 88.9995615-139.3914953 3.254713-4.6014905 9.988602-4.6014905 13.355546 0 27.272249 36.8119243 83.724682 134.1166153 88.999562 139.3914953 7.743971 7.856203 18.405962 2.918018 24.578693-5.948269 6.0605-8.754055 7.743972-14.926786 7.743972-21.436212-.112231-4.489259-88.10171-165.765892-96.967996-179.1214378z" fill="#1173b6"/></svg>

<?xml version="1.0" encoding="UTF-8"?>
<svg width="256px" height="227px" viewBox="0 0 256 227" version="1.1" xmlns="http://www.w3.org/2000/svg" xmlns:xlink="http://www.w3.org/1999/xlink" preserveAspectRatio="xMidYMid">
    <g>
        <path d="M159.032004,16.2735642 C149.604559,1.90793512 147.35993,0 128.168347,0 L128.168347,0 L127.943884,0 L127.719421,0 L127.719421,0 C108.527839,0 106.395441,1.90793512 96.855765,16.2735642 C87.9894783,29.7413415 0,190.905743 0,195.395002 C0,201.904428 1.68347216,208.077159 7.74397194,216.831214 C13.9167032,225.697501 24.5786936,230.635686 32.3226655,222.779483 C37.5975449,217.504603 94.0499781,120.199912 121.322227,83.3879877 L121.322227,83.3879877 C124.57694,78.7864972 131.310829,78.7864972 134.677773,83.3879877 L134.677773,83.3879877 C161.950022,120.199912 218.402455,217.504603 223.677335,222.779483 C231.421306,230.635686 242.083297,225.697501 248.256028,216.831214 C254.316528,208.077159 256,201.904428 256,195.395002 C255.887769,190.905743 167.89829,29.62911 159.032004,16.2735642 Z" fill="#1173B6"></path>
    </g>
</svg>
